dist/images/src/logo-tripadvisor.svg

<svg width="183" height="30" fill="none" xmlns="http://www.w3.org/2000/svg"><path fill-rule="evenodd" clip-rule="evenodd" d="M.1 16.8c0 6.8 5.469 12.4 12.33 12.4 3.877 0 7.258-1.8 9.545-4.6.895 1.1 2.486 3.3 2.784 3.9 0 0 1.79-2.7 2.784-3.9 2.287 2.8 5.668 4.6 9.546 4.6 6.761 0 12.33-5.5 12.33-12.4 0-2.7-.895-5.2-2.387-7.3.199-1.4 1.193-3.4 2.486-4.9h-8.253C37.089 1.8 31.322 0 24.759 0 18.197 0 12.032 1.8 7.856 4.6H0c1.293 1.5 2.188 3.5 2.486 4.9C.995 11.6.1 14.1.1 16.8zm46.932 0c0 5.5-4.474 10-9.943 10-5.469 0-9.943-4.5-9.943-10s4.474-10 9.943-10c5.469.1 9.943 4.5 9.943 10zM24.759 2.1c4.375 0 8.452.8 11.932 2.4-6.662.2-11.932 5.7-11.932 12.4 0-6.8-5.469-12.4-12.33-12.4 3.58-1.6 7.955-2.4 12.33-2.4zm-12.33 4.8c5.47 0 9.944 4.5 9.944 10s-4.475 10-9.944 10c-5.468 0-9.943-4.5-9.943-10 .1-5.6 4.475-10 9.943-10zm24.66 15.9c3.281 0 5.966-2.7 5.966-6s-2.685-6-5.966-6-5.966 2.7-5.966 6 2.685 6 5.966 6zm-24.759 0c3.281 0 5.966-2.7 5.966-6s-2.685-6-5.966-6-5.966 2.7-5.966 6 2.685 6 5.966 6zm0-10.2c2.287 0 4.176 1.9 4.176 4.2 0 2.3-1.889 4.2-4.176 4.2s-4.176-1.9-4.176-4.2c0-2.3 1.889-4.2 4.176-4.2zm24.759 0c2.287 0 4.176 1.9 4.176 4.2 0 2.3-1.89 4.2-4.176 4.2-2.287 0-4.176-1.9-4.176-4.2 0-2.3 1.889-4.2 4.176-4.2zm-25.057 6.2a2 2 0 100-4 2 2 0 000 4zm24.759 0a2 2 0 100-4 2 2 0 000 4zm34.96-11.859l-2.633.784v2.353h-2.014v2.197h2.014v6.745c0 2.98 1.239 4.549 3.717 4.549.93 0 1.549-.157 2.169-.314l-.155-2.04h-.155c-.31.158-.775.158-1.394.158-.62 0-1.085-.157-1.24-.628-.31-.314-.464-.941-.464-1.882v-6.745h3.408V9.922h-3.408v-2.98h.155v-.001zm11.771 2.824c-.775 0-1.55.313-2.324.784-.62.47-1.084.941-1.394 1.726l-.155-2.197h-2.323v.157c0 1.098.155 2.51.155 4.079v8.94h2.633v-7.058c0-1.255.31-2.196.93-2.98.62-.628 1.394-1.098 2.168-1.098h.929V9.45h-.155c0 .314-.31.314-.464.314v.001zm3.098.313h2.633v13.177H86.62V10.078zm1.394-5.49c-.465 0-.93.157-1.24.47-.31.315-.464.785-.464 1.256 0 .47.155.94.465 1.255.31.313.774.47 1.239.47.464 0 .93-.157 1.239-.47.31-.314.465-.785.465-1.255 0-.47-.155-.941-.465-1.255-.31-.314-.775-.47-1.24-.47l.001-.001zm10.533 5.177c-1.86 0-3.408.784-4.492 2.196l-.155-2.04h-2.478v.157c0 1.098.155 2.51.155 4.236v14.274h2.634v-6.745c.31.47.774.941 1.394 1.255.774.314 1.549.627 2.323.627 1.704 0 3.098-.627 4.182-2.039 1.085-1.255 1.704-3.137 1.704-5.176 0-1.883-.465-3.608-1.549-4.863-.774-1.255-2.168-1.882-3.717-1.882h-.001zm17.348 10.353v-4.706c0-1.726-.465-3.137-1.24-4.079-.929-.94-2.168-1.411-3.872-1.411-1.703 0-3.252.47-4.492 1.254l.62 1.883h.155c.93-.628 2.168-.941 3.408-.941.929 0 1.703.313 2.168.784.465.47.775 1.255.775 2.04v.156c-2.634 0-4.492.47-5.886 1.255-1.394.784-2.014 2.04-2.014 3.765 0 1.098.31 2.039 1.084 2.666.775.785 1.704 1.098 2.943 1.098 1.704 0 3.098-.627 4.028-1.882l.31 1.569h2.478v-.157c-.465-.941-.465-2.04-.465-3.294zm13.63-.314V3.96h-2.632v7.53c-.31-.471-.775-.785-1.395-1.099-.774-.314-1.548-.627-2.323-.627-1.704 0-3.098.627-4.182 2.039-1.084 1.255-1.704 3.137-1.704 5.176 0 1.883.465 3.608 1.549 4.863 1.084 1.255 2.478 1.882 4.027 1.882.93 0 1.859-.313 2.633-.784.62-.314 1.085-.941 1.55-1.568l.154 1.882h2.479v-.157c0-.627-.155-1.882-.155-3.294l-.001.001zm7.59-2.04c-.31-.94-3.717-7.686-3.717-7.686h-2.943l6.506 13.177 6.505-13.177h-2.943c.155 0-3.098 7.06-3.407 7.687l-.001-.001zm7.745-7.686h2.634v13.177h-2.634V10.078zm1.395-5.49c-.465 0-.93.157-1.24.47-.31.315-.464.785-.464 1.256 0 .47.155.94.464 1.255.31.313.775.47 1.24.47.464 0 .929-.157 1.239-.47.31-.314.464-.785.464-1.255 0-.47-.155-.941-.464-1.255-.31-.314-.775-.47-1.24-.47l.001-.001zm9.293 10.98c-.93-.313-1.704-.627-2.013-.94-.31-.314-.465-.628-.465-1.099 0-.47.155-.94.465-1.254.31-.314.929-.471 1.549-.471.929 0 1.858.314 2.788.784h.155l.62-2.039c-.93-.47-2.014-.784-3.409-.784-1.394 0-2.633.313-3.407 1.098-.93.784-1.24 1.725-1.24 2.823 0 1.726 1.24 2.98 3.563 3.765.93.314 1.55.627 1.859.941.31.314.465.784.465 1.255 0 .47-.155.941-.62 1.255-.465.314-1.084.47-1.704.47-1.084 0-2.168-.313-3.253-.94h-.155l-.62 2.195h.156c1.084.628 2.478.942 3.872.942 1.55 0 2.788-.314 3.718-1.098.929-.785 1.394-1.726 1.394-2.98 0-.942-.31-1.726-.775-2.354-.774-.47-1.704-1.098-2.943-1.568v-.001zm11.308-5.803c-1.86 0-3.408.627-4.647 1.882-1.24 1.255-1.859 2.98-1.859 5.177 0 2.039.62 3.607 1.704 4.862 1.239 1.255 2.633 1.883 4.492 1.883 1.084 0 2.323-.314 3.253-.942.929-.627 1.858-1.411 2.323-2.51.62-1.097.775-2.352.775-3.764 0-2.04-.62-3.608-1.704-4.863-.93-1.098-2.479-1.725-4.337-1.725zm14.56 0c-.775 0-1.55.313-2.324.784-.62.47-1.084.941-1.394 1.726l-.155-2.197h-2.168v13.176h2.633v-7.058c0-1.255.31-2.196.93-2.98.619-.628 1.394-1.098 2.168-1.098h.929V9.45h-.155c0 .314-.31.314-.464.314v.001zm-68.154 9.098c0 .784-.31 1.412-.93 1.882-.62.628-1.394.784-2.323.784-.62 0-1.084-.156-1.549-.627-.31-.314-.62-.941-.62-1.569 0-.784.31-1.568 1.085-2.039.774-.47 2.168-.784 4.182-.784v2.353h.155zm13.63-1.255c0 1.098-.31 2.04-.929 2.667-.62.627-1.394.94-2.323.94-1.085 0-2.014-.47-2.633-1.254-.62-.941-.93-2.04-.93-3.294 0-1.412.31-2.51.93-3.451.62-.941 1.548-1.255 2.633-1.255.93 0 1.704.314 2.323.941.62.627.93 1.569.93 2.51v2.196h-.001zm-26.641 2.51c-.62.784-1.55 1.255-2.634 1.255-.93 0-1.704-.314-2.323-.942-.62-.627-.93-1.568-.93-2.51v-2.039c0-.313.155-.94.31-1.568.155-.628.62-1.098 1.24-1.569a2.953 2.953 0 011.858-.627c1.084 0 1.859.47 2.633 1.255.62.784.93 1.882.93 3.294 0 1.411-.31 2.666-1.084 3.45v.001zm69.083.157c-.775.94-1.549 1.411-2.633 1.411-1.085 0-1.859-.47-2.634-1.411-.774-.942-1.084-2.04-1.084-3.451 0-1.412.31-2.51 1.084-3.451.62-.942 1.55-1.412 2.789-1.412 1.084 0 2.013.47 2.633 1.412.62.94.93 2.039.93 3.45 0 1.255-.31 2.51-1.085 3.452z" fill="#B2B2B2"/></svg>

<svg width="183" height="30" viewBox="0 0 183 30" fill="none" xmlns="http://www.w3.org/2000/svg">
<path fill-rule="evenodd" clip-rule="evenodd" d="M0.1 16.8C0.1 23.6 5.569 29.2 12.43 29.2C16.307 29.2 19.688 27.4 21.975 24.6C22.87 25.7 24.461 27.9 24.759 28.5C24.759 28.5 26.549 25.8 27.543 24.6C29.83 27.4 33.211 29.2 37.089 29.2C43.85 29.2 49.419 23.7 49.419 16.8C49.419 14.1 48.524 11.6 47.032 9.5C47.231 8.1 48.225 6.1 49.518 4.6H41.265C37.089 1.8 31.322 0 24.759 0C18.197 0 12.032 1.8 7.856 4.6H7.86781e-09C1.293 6.1 2.188 8.1 2.486 9.5C0.995 11.6 0.1 14.1 0.1 16.8ZM47.032 16.8C47.032 22.3 42.558 26.8 37.089 26.8C31.62 26.8 27.146 22.3 27.146 16.8C27.146 11.3 31.62 6.8 37.089 6.8C42.558 6.9 47.032 11.3 47.032 16.8ZM24.759 2.1C29.134 2.1 33.211 2.9 36.691 4.5C30.029 4.7 24.759 10.2 24.759 16.9C24.759 10.1 19.29 4.5 12.429 4.5C16.009 2.9 20.384 2.1 24.759 2.1ZM12.429 6.9C17.899 6.9 22.373 11.4 22.373 16.9C22.373 22.4 17.898 26.9 12.429 26.9C6.961 26.9 2.486 22.4 2.486 16.9C2.586 11.3 6.961 6.9 12.429 6.9ZM37.089 22.8C40.37 22.8 43.055 20.1 43.055 16.8C43.055 13.5 40.37 10.8 37.089 10.8C33.808 10.8 31.123 13.5 31.123 16.8C31.123 20.1 33.808 22.8 37.089 22.8ZM12.33 22.8C15.611 22.8 18.296 20.1 18.296 16.8C18.296 13.5 15.611 10.8 12.33 10.8C9.049 10.8 6.364 13.5 6.364 16.8C6.364 20.1 9.049 22.8 12.33 22.8ZM12.33 12.6C14.617 12.6 16.506 14.5 16.506 16.8C16.506 19.1 14.617 21 12.33 21C10.043 21 8.154 19.1 8.154 16.8C8.154 14.5 10.043 12.6 12.33 12.6ZM37.089 12.6C39.376 12.6 41.265 14.5 41.265 16.8C41.265 19.1 39.375 21 37.089 21C34.802 21 32.913 19.1 32.913 16.8C32.913 14.5 34.802 12.6 37.089 12.6ZM12.032 18.8C12.5624 18.8 13.0711 18.5893 13.4462 18.2142C13.8213 17.8391 14.032 17.3304 14.032 16.8C14.032 16.2696 13.8213 15.7609 13.4462 15.3858C13.0711 15.0107 12.5624 14.8 12.032 14.8C11.5016 14.8 10.9929 15.0107 10.6178 15.3858C10.2427 15.7609 10.032 16.2696 10.032 16.8C10.032 17.3304 10.2427 17.8391 10.6178 18.2142C10.9929 18.5893 11.5016 18.8 12.032 18.8ZM36.791 18.8C37.3214 18.8 37.8301 18.5893 38.2052 18.2142C38.5803 17.8391 38.791 17.3304 38.791 16.8C38.791 16.2696 38.5803 15.7609 38.2052 15.3858C37.8301 15.0107 37.3214 14.8 36.791 14.8C36.2606 14.8 35.7519 15.0107 35.3768 15.3858C35.0017 15.7609 34.791 16.2696 34.791 16.8C34.791 17.3304 35.0017 17.8391 35.3768 18.2142C35.7519 18.5893 36.2606 18.8 36.791 18.8ZM71.751 6.941L69.118 7.725V10.078H67.104V12.275H69.118V19.02C69.118 22 70.357 23.569 72.835 23.569C73.765 23.569 74.384 23.412 75.004 23.255L74.849 21.215H74.694C74.384 21.373 73.919 21.373 73.3 21.373C72.68 21.373 72.215 21.216 72.06 20.745C71.75 20.431 71.596 19.804 71.596 18.863V12.118H75.004V9.922H71.596V6.942H71.751V6.941ZM83.522 9.765C82.747 9.765 81.972 10.078 81.198 10.549C80.578 11.019 80.114 11.49 79.804 12.275L79.649 10.078H77.326V10.235C77.326 11.333 77.481 12.745 77.481 14.314V23.254H80.114V16.196C80.114 14.941 80.424 14 81.044 13.216C81.664 12.588 82.438 12.118 83.212 12.118H84.141V9.45H83.986C83.986 9.764 83.676 9.764 83.522 9.764V9.765ZM86.62 10.078H89.253V23.255H86.62V10.078ZM88.014 4.588C87.549 4.588 87.084 4.745 86.774 5.058C86.464 5.373 86.31 5.843 86.31 6.314C86.31 6.784 86.465 7.254 86.775 7.569C87.085 7.882 87.549 8.039 88.014 8.039C88.478 8.039 88.944 7.882 89.253 7.569C89.563 7.255 89.718 6.784 89.718 6.314C89.718 5.844 89.563 5.373 89.253 5.059C88.943 4.745 88.478 4.589 88.013 4.589L88.014 4.588ZM98.547 9.765C96.687 9.765 95.139 10.549 94.055 11.961L93.9 9.921H91.422V10.078C91.422 11.176 91.577 12.588 91.577 14.314V28.588H94.211V21.843C94.521 22.313 94.985 22.784 95.605 23.098C96.379 23.412 97.154 23.725 97.928 23.725C99.632 23.725 101.026 23.098 102.11 21.686C103.195 20.431 103.814 18.549 103.814 16.51C103.814 14.627 103.349 12.902 102.265 11.647C101.491 10.392 100.097 9.765 98.548 9.765H98.547ZM115.895 20.118V15.412C115.895 13.686 115.43 12.275 114.655 11.333C113.726 10.393 112.487 9.922 110.783 9.922C109.08 9.922 107.531 10.392 106.291 11.176L106.911 13.059H107.066C107.996 12.431 109.234 12.118 110.474 12.118C111.403 12.118 112.177 12.431 112.642 12.902C113.107 13.372 113.417 14.157 113.417 14.942V15.098C110.783 15.098 108.925 15.568 107.531 16.353C106.137 17.137 105.517 18.393 105.517 20.118C105.517 21.216 105.827 22.157 106.601 22.784C107.376 23.569 108.305 23.882 109.544 23.882C111.248 23.882 112.642 23.255 113.572 22L113.882 23.569H116.36V23.412C115.895 22.471 115.895 21.372 115.895 20.118ZM129.525 19.804V3.96H126.893V11.49C126.583 11.019 126.118 10.705 125.498 10.391C124.724 10.077 123.95 9.764 123.175 9.764C121.471 9.764 120.077 10.391 118.993 11.803C117.909 13.058 117.289 14.94 117.289 16.979C117.289 18.862 117.754 20.587 118.838 21.842C119.922 23.097 121.316 23.724 122.865 23.724C123.795 23.724 124.724 23.411 125.498 22.94C126.118 22.626 126.583 21.999 127.048 21.372L127.202 23.254H129.681V23.097C129.681 22.47 129.526 21.215 129.526 19.803L129.525 19.804ZM137.115 17.764C136.805 16.824 133.398 10.078 133.398 10.078H130.455L136.961 23.255L143.466 10.078H140.523C140.678 10.078 137.425 17.138 137.116 17.765L137.115 17.764ZM144.86 10.078H147.494V23.255H144.86V10.078ZM146.255 4.588C145.79 4.588 145.325 4.745 145.015 5.058C144.705 5.373 144.551 5.843 144.551 6.314C144.551 6.784 144.706 7.254 145.015 7.569C145.325 7.882 145.79 8.039 146.255 8.039C146.719 8.039 147.184 7.882 147.494 7.569C147.804 7.255 147.958 6.784 147.958 6.314C147.958 5.844 147.803 5.373 147.494 5.059C147.184 4.745 146.719 4.589 146.254 4.589L146.255 4.588ZM155.548 15.568C154.618 15.255 153.844 14.941 153.535 14.628C153.225 14.314 153.07 14 153.07 13.529C153.07 13.059 153.225 12.589 153.535 12.275C153.845 11.961 154.464 11.804 155.084 11.804C156.013 11.804 156.942 12.118 157.872 12.588H158.027L158.647 10.549C157.717 10.079 156.633 9.765 155.238 9.765C153.844 9.765 152.605 10.078 151.831 10.863C150.901 11.647 150.591 12.588 150.591 13.686C150.591 15.412 151.831 16.666 154.154 17.451C155.084 17.765 155.704 18.078 156.013 18.392C156.323 18.706 156.478 19.176 156.478 19.647C156.478 20.117 156.323 20.588 155.858 20.902C155.393 21.216 154.774 21.372 154.154 21.372C153.07 21.372 151.986 21.059 150.901 20.432H150.746L150.126 22.627H150.282C151.366 23.255 152.76 23.569 154.154 23.569C155.704 23.569 156.942 23.255 157.872 22.471C158.801 21.686 159.266 20.745 159.266 19.491C159.266 18.549 158.956 17.765 158.491 17.137C157.717 16.667 156.787 16.039 155.548 15.569V15.568ZM166.856 9.765C164.996 9.765 163.448 10.392 162.209 11.647C160.969 12.902 160.35 14.627 160.35 16.824C160.35 18.863 160.97 20.431 162.054 21.686C163.293 22.941 164.687 23.569 166.546 23.569C167.63 23.569 168.869 23.255 169.799 22.627C170.728 22 171.657 21.216 172.122 20.117C172.742 19.02 172.897 17.765 172.897 16.353C172.897 14.313 172.277 12.745 171.193 11.49C170.263 10.392 168.714 9.765 166.856 9.765ZM181.416 9.765C180.641 9.765 179.866 10.078 179.092 10.549C178.472 11.019 178.008 11.49 177.698 12.275L177.543 10.078H175.375V23.254H178.008V16.196C178.008 14.941 178.318 14 178.938 13.216C179.557 12.588 180.332 12.118 181.106 12.118H182.035V9.45H181.88C181.88 9.764 181.57 9.764 181.416 9.764V9.765ZM113.262 18.863C113.262 19.647 112.952 20.275 112.332 20.745C111.712 21.373 110.938 21.529 110.009 21.529C109.389 21.529 108.925 21.373 108.46 20.902C108.15 20.588 107.84 19.961 107.84 19.333C107.84 18.549 108.15 17.765 108.925 17.294C109.699 16.824 111.093 16.51 113.107 16.51V18.863H113.262ZM126.892 17.608C126.892 18.706 126.582 19.648 125.963 20.275C125.343 20.902 124.569 21.215 123.64 21.215C122.555 21.215 121.626 20.745 121.007 19.961C120.387 19.02 120.077 17.921 120.077 16.667C120.077 15.255 120.387 14.157 121.007 13.216C121.627 12.275 122.555 11.961 123.64 11.961C124.57 11.961 125.344 12.275 125.963 12.902C126.583 13.529 126.893 14.471 126.893 15.412V17.608H126.892ZM100.251 20.118C99.631 20.902 98.701 21.373 97.617 21.373C96.687 21.373 95.913 21.059 95.294 20.431C94.674 19.804 94.364 18.863 94.364 17.921V15.882C94.364 15.569 94.519 14.942 94.674 14.314C94.829 13.686 95.294 13.216 95.914 12.745C96.4438 12.3305 97.0993 12.1093 97.772 12.118C98.856 12.118 99.631 12.588 100.405 13.373C101.025 14.157 101.335 15.255 101.335 16.667C101.335 18.078 101.025 19.333 100.251 20.117V20.118ZM169.334 20.275C168.559 21.215 167.785 21.686 166.701 21.686C165.616 21.686 164.842 21.216 164.067 20.275C163.293 19.333 162.983 18.235 162.983 16.824C162.983 15.412 163.293 14.314 164.067 13.373C164.687 12.431 165.617 11.961 166.856 11.961C167.94 11.961 168.869 12.431 169.489 13.373C170.109 14.313 170.419 15.412 170.419 16.823C170.419 18.078 170.109 19.333 169.334 20.275Z" fill="#B2B2B2"/>
</svg>
